svgs/duotone/popcorn.svg

<svg xmlns="http://www.w3.org/2000/svg" viewBox="0 0 448 512"><!--! Font Awesome Pro 6.3.0 by @fontawesome - https://fontawesome.com License - https://fontawesome.com/license (Commercial License) Copyright 2023 Fonticons, Inc. --><defs><style>.fa-secondary{opacity:.4}</style></defs><path class="fa-primary" d="M0 188.5c0 2.329 .2855 4.649 .85 6.909l73.06 292.4C77.45 501.1 90.24 512 104.9 512l238.3-.0098c14.62-.0011 27.36-10.01 30.91-24.2l73.06-292.4C447.7 193.2 448 190.8 448 188.5c0-15.74-12.76-28.5-28.49-28.5H28.49C12.76 160 0 172.8 0 188.5zM145.1 463.9c-.6719 .0782-1.344 .125-2 .125c-7.953 0-14.84-5.922-15.86-14.02L100.1 225.1C98.93 216.4 106.4 208 115.1 208c8.068 0 14.87 6.008 15.88 14.02l28 224C160.1 454.8 154.8 462.8 145.1 463.9zM224 464c-8.844 0-16-7.157-16-16V224c0-8.836 7.163-15.99 15.1-15.99C232.8 208 240 215.2 240 224v224C240 456.9 232.8 464 224 464zM319.9 450c-1.016 8.094-7.906 14.02-15.86 14.02c-.6562 0-1.328-.0469-2-.125c-8.766-1.094-14.98-9.094-13.89-17.86l28-224c1.001-8.007 7.807-14.02 15.88-14.02c9.623 0 17.07 8.435 15.88 17.98L319.9 450z"/><path class="fa-secondary" d="M411.6 138.9c-7-11.88-19.38-19.63-33.13-20.75c6.5-11.75 6.375-25.88-.25-37.5c-9.125-16-28-23.63-45.63-20.13c-.25-16.63-11.5-32-29-37.5c-13.25-4.25-27.88-1.875-39.13 6.5c0-.75-.25-1.375-.625-2C256.7 6.343 232.7-4.782 210.5 1.969C197.5 5.969 187.2 16.22 183.1 29.22C171.1 21.09 157.5 18.84 144.4 23.09c-17.5 5.375-28.62 20.75-29 37.38c-17.62-3.5-36.5 4.125-45.63 20.13C62.1 92.1 62.87 106.5 69.5 118.1C55.1 119.4 43.12 126.7 36.37 138.9C32.5 145.6 31.62 152.9 32.12 159.1h383.8C416.4 152.9 415.5 145.6 411.6 138.9z"/></svg>

<svg xmlns="http://www.w3.org/2000/svg" viewBox="0 0 448 512"><!-- Font Awesome Pro 6.0.0-alpha2 by @fontawesome - https://fontawesome.com License - https://fontawesome.com/license (Commercial License) --><defs><style>.fa-secondary{opacity:.4}</style></defs><path d="M411.628 138.852C404.628 126.976 392.253 119.226 378.503 118.101C385.003 106.35 384.878 92.224 378.253 80.598C369.128 64.597 350.253 56.972 332.628 60.472C332.378 43.846 321.128 28.47 303.628 22.97C290.378 18.719 275.753 21.095 264.503 29.47C264.503 28.72 264.253 28.095 263.878 27.47C256.753 6.344 232.753 -4.782 210.503 1.968C197.503 5.969 187.253 16.219 183.128 29.22C172.003 21.095 157.503 18.844 144.378 23.095C126.878 28.47 115.753 43.846 115.378 60.472C97.753 56.972 78.878 64.597 69.753 80.598C63.003 92.099 62.878 106.475 69.503 118.101C56.003 119.351 43.128 126.726 36.378 138.852C32.503 145.602 31.628 152.853 32.128 159.978H415.878C416.378 152.853 415.503 145.602 411.628 138.852Z" class="fa-secondary"/><path d="M0 188.505V188.505C0 190.834 0.285 193.154 0.85 195.413L73.925 487.861C77.469 502.048 90.155 512.001 104.777 512C159.245 511.998 288.728 511.994 343.208 511.99C357.833 511.989 370.527 502.034 374.073 487.845L447.15 195.414C447.714 193.154 448 190.834 448 188.505V188.505C448 172.767 435.243 160.009 419.507 160.009H28.493C12.757 160.009 0 172.767 0 188.505ZM145.984 463.903C145.312 463.981 144.641 464.028 143.984 464.028C136.031 464.028 129.141 458.106 128.125 450.012L100.125 225.996C98.931 216.447 106.377 208.012 116 208.012H116C124.068 208.012 130.874 214.021 131.875 222.027L159.875 446.043C160.969 454.809 154.75 462.809 145.984 463.903ZM224 464.028C215.156 464.028 208 456.872 208 448.027V224.012C208 215.176 215.163 208.012 223.999 208.012H224.001C232.837 208.012 240 215.176 240 224.012V448.027C240 456.872 232.844 464.028 224 464.028ZM319.875 450.012C318.859 458.106 311.969 464.028 304.016 464.028C303.359 464.028 302.688 463.981 302.016 463.903C293.25 462.809 287.031 454.809 288.125 446.043L316.125 222.027C317.126 214.021 323.932 208.012 332 208.012H332C341.623 208.012 349.069 216.447 347.875 225.996L319.875 450.012Z" class="fa-primary"/></svg>
